X: 14
T: TOMMY McTAGUE
C: Andrew Rankine
R: reel, hornpipe
B: "The Complete Andrew Rankine Collection of Scottish Country Dance Tunes" p.17
Z: 2017 John Chambers <jc:trillian.mit.edu>
M: C
L: 1/8
K: D
FE |\
"D"D2FA "A7"GFGE | "D"D2FA "D7"BAFA |\
"G"GBdg "D"fefd | "A7"cBcA GFGE |\
"D"D2FA "A"GFGE | "Bm"D2FA "F#m"BAFA |
"G"GBdg "D"fefd |[1 "A7"cAGE "D"D2 :|\
[1 "A7"cAGE "D"D2z2 |:\
"A"AcBc "Em"BG"A7"EG | "D"Fdcd "D7"BAFA |
"G"Gdcd "D"AFAd | "E7"B^GBe "A7"cA=GE |\
"D"D2FA "A"GFGE | "Bm"D2FA "F#m"BAFA |\
"G"GBdg "D"fefd | "A7"cAGE "D"D2-D2 :|

%%sep 1 1 500

